svg/u1f93d_1f3ff_200d_2640.svg

<svg viewBox="0 0 128 128" xmlns="http://www.w3.org/2000/svg">
  <defs>
    <linearGradient id="body_1_" gradientTransform="matrix(1 0 0 -1 0 0)" gradientUnits="userSpaceOnUse" x1="60.4642" x2="71.3479" y1="-83.2677" y2="-54.5236">
      <stop offset="0" stop-color="#5C4037"/>
      <stop offset="0.5" stop-color="#70534A"/>
    </linearGradient>
    <linearGradient id="swimmingsuit_2_" gradientTransform="matrix(1 0 0 -1 0 0)" gradientUnits="userSpaceOnUse" x1="68.199" x2="57.6586" y1="-64.5243" y2="-94.9054">
      <stop offset="0" stop-color="#651FFF"/>
      <stop offset="0.7047" stop-color="#5914F2"/>
      <stop offset="1" stop-color="#530EEB"/>
    </linearGradient>
    <linearGradient id="hand_1_" gradientTransform="matrix(0.7216 0.5127 0.5792 -0.8152 0 0)" gradientUnits="userSpaceOnUse" x1="152.482884" x2="152.168084" y1="-21.590204" y2="-32.696404">
      <stop offset="0.5" stop-color="#70534A"/>
      <stop offset="1" stop-color="#5C4037"/>
    </linearGradient>
    <radialGradient id="SVGID_4_" cx="76.875" cy="-27.25" gradientTransform="matrix(1 0 0 -1 0 0)" gradientUnits="userSpaceOnUse" r="23.4351">
      <stop offset="0.2994" stop-color="#651FFF"/>
      <stop offset="0.7403" stop-color="#5914F2"/>
      <stop offset="0.925" stop-color="#530EEB"/>
    </radialGradient>
    <radialGradient id="SVGID_1_" cx="31.2523" cy="-14.8574" gradientTransform="matrix(1 0 0 -1 0 0)" gradientUnits="userSpaceOnUse" r="17.6509">
      <stop offset="0.2092" stop-color="#FFA726"/>
      <stop offset="0.7917" stop-color="#B33F00"/>
    </radialGradient>
  </defs>
  <path id="body" d="M109.08,91.33 C108.99,91.45 98.9,103.18 98.9,103.18 L91.67,97.53 L96.79,89.85 L97.2,89.23 C97.2,89.23 96.84,89.08 96.23,88.83 C93.9,87.89 87.95,85.53 85.26,84.9 C82.42,84.23 81.32,85.4 80.34,87.53 C80.11,88.02 79.89,88.56 79.65,89.14 C76.92,95.83 73.4,105.44 73.4,105.44 C60.87,104.02 47.98,101.67 35.38,101.12 C39.62,94.25 44.77,78.96 45.52,76.97 C45.61,76.74 45.68,76.53 45.73,76.33 C46.51,73.3 43.7,72.67 39.26,71.41 C35.79,70.43 31.52,69.33 27.5,67.67 C22.25,65.5 22.26,59.98 23.25,57.17 C25.34,51.22 32.11,41.93 32.45,41.07 C33.58,38.17 30.08,38.17 28.2,34.01 C27.39,32.2 28.18,30.54 29.2,28.84 C30.45,26.76 32.97,25.83 35.37,25.46 C37.79,25.1 40.34,25.17 42.56,26.18 C43.03,26.4 43.66,26.6 44.06,26.95 C44.42,27.28 44.47,27.66 44.93,27.86 C45.51,28.11 46.1,27.81 46.7,28.21 C47.16,28.52 47.5,29.02 47.65,29.54 C47.92,30.41 48.52,31.06 48.25,31.92 C47.42,34.59 45.21,36.64 43.65,39.54 C42.68,41.33 41.99,43.26 41.18,45.13 C39.75,48.43 38.16,51.76 37.06,55.2 C36.98,55.44 36.9,55.68 36.83,55.92 C36.83,55.92 37.07,55.98 37.5,56.08 C39.91,56.68 48.38,58.72 55.11,60.4 C55.94,60.61 56.74,60.81 57.5,61 C57.77,61.07 58.03,61.13 58.3,61.2 C65.34,62.97 71.68,64.6 78.38,67.12 C78.43,67.14 78.47,67.16 78.52,67.17 C79.55,67.56 80.53,67.94 81.48,68.31 C98.69,74.98 103.77,78.39 106.46,79.92 C110.5,82.21 112.67,86.67 109.08,91.33 Z" fill="url(#body_1_)"/>
  <path id="tone" d="M37.5,56.08 L32.86,58.66 C32.82,58.68 32.77,58.67 32.74,58.63 C32.72,58.59 32.73,58.54 32.77,58.52 L37.06,55.2 C36.98,55.44 36.9,55.68 36.83,55.92 C36.83,55.92 37.07,55.98 37.5,56.08 Z" fill="#4A2F27"/>
  <path id="swimmingsuit_1_" d="M81.48,68.31 C81.48,68.32 81.48,68.32 81.48,68.33 C81.44,68.46 81.34,68.72 81.2,69.08 C78,77.39 77.72,83.6 80.34,87.53 C80.11,88.02 79.89,88.56 79.65,89.14 C76.92,95.83 73.4,105.44 73.4,105.44 C60.87,104.02 47.98,101.67 35.38,101.12 C39.62,94.25 44.77,78.96 45.52,76.97 C45.61,76.74 45.68,76.53 45.73,76.33 C49.59,74.42 52.69,69.25 54.96,60.94 L55.11,60.4 C55.94,60.61 56.74,60.81 57.5,61 C57.77,61.07 58.03,61.13 58.3,61.2 C57.91,72.38 62.77,74.18 64.6,74.87 C71.14,77.3 75.77,72.02 78.52,67.17 C79.55,67.56 80.53,67.94 81.48,68.31 Z" fill="url(#swimmingsuit_2_)"/>
  <path id="neck" d="M66.81,72.57 L66.81,72.57 C63.99,72.02 62.15,69.28 62.7,66.46 L63.62,61.77 L73.84,63.77 L72.92,68.46 C72.37,71.28 69.63,73.12 66.81,72.57 Z" fill="#3C2B24"/>
  <path id="head" d="M76.41,25.19 L76.41,25.19 L76.41,25.19 C68.02,23.55 58.5,30.99 55.97,43.9 C53.45,56.74 60.21,64.65 68.36,66.25 C76.51,67.85 85.76,63.07 88.27,50.23 C90.8,37.32 84.79,26.83 76.41,25.19 Z" fill="#70534A"/>
  <path d="M68.45,43.99 C68.13,43.31 67.28,42.25 65.29,41.84 C63.3,41.43 62.1,42.07 61.53,42.57 C61.28,42.79 61.27,43.1 61.37,43.31 C61.46,43.5 61.8,43.74 62.24,43.68 C62.68,43.62 63.57,43.37 64.92,43.64 C66.26,43.93 66.98,44.51 67.36,44.73 C67.74,44.95 68.15,44.88 68.31,44.73 C68.48,44.58 68.59,44.29 68.45,43.99 Z" fill="#1A1717"/>
  <path d="M84,47.2 C83.68,46.52 82.83,45.46 80.84,45.05 C78.85,44.64 77.65,45.28 77.08,45.78 C76.83,46 76.82,46.31 76.92,46.52 C77.01,46.71 77.35,46.95 77.79,46.89 C78.23,46.83 79.12,46.58 80.47,46.85 C81.81,47.14 82.53,47.72 82.91,47.94 C83.29,48.16 83.7,48.09 83.86,47.94 C84.03,47.79 84.14,47.5 84,47.2 Z" fill="#1A1717"/>
  <path d="M64.324,45.147 C65.635,45.404 66.482,46.716 66.215,48.076 C65.949,49.436 64.669,50.33 63.358,50.073 C62.046,49.816 61.199,48.505 61.466,47.145 C61.733,45.784 63.012,44.89 64.324,45.147 Z" fill="#1A1717"/>
  <path d="M80.158,48.252 C81.47,48.509 82.317,49.821 82.05,51.181 C81.783,52.541 80.504,53.435 79.192,53.178 C77.881,52.921 77.034,51.61 77.3,50.25 C77.567,48.889 78.846,47.995 80.158,48.252 Z" fill="#1A1717"/>
  <path id="mouth" d="M73.63,58.85 C71.92,59.46 66.88,58.47 65.53,57.26 C64.75,56.56 63.69,57.19 63.9,58.06 C64.11,58.92 66.49,61.28 68.87,61.75 C71.25,62.22 74.31,60.92 74.83,60.2 C75.34,59.47 74.61,58.49 73.63,58.85 Z" fill="#1A1717"/>
  <path id="nose" d="M72.44,53.81 C72.39,53.78 72.34,53.76 72.29,53.74 L68.88,53.07 C68.83,53.07 68.77,53.07 68.72,53.08 C68.39,53.14 68.15,53.43 68.23,53.8 C68.31,54.17 68.8,55.26 70.17,55.53 C71.54,55.8 72.4,54.97 72.62,54.66 C72.83,54.35 72.73,54 72.44,53.81 Z" fill="#33251F"/>
  <path d="M51.94,20 A16 16 0 1 1 19.94,20 A16 16 0 1 1 51.94,20 Z" fill="#FF9100"/>
  <path d="M51.94,20 A16 16 0 1 1 19.94,20 A16 16 0 1 1 51.94,20 Z" fill="url(#SVGID_1_)" opacity="0.4"/>
  <path d="M35.569,20.166 Q33.987,16.495 33.987,12.44 Q33.987,7.973 35.896,4 L35.94,4 C36.216,4 36.49,4.007 36.763,4.021 Q34.773,7.972 34.773,12.44 Q34.773,16.333 36.291,19.854 Z" fill="#6D4C41"/>
  <path d="M34.995,7.087 Q35.488,7.057 36,7.057 Q44.969,7.057 50.583,13.541 C50.905,14.271 51.175,15.03 51.387,15.813 L51.368,15.826 Q45.749,7.843 36,7.843 Q35.512,7.843 35.045,7.873 Z" fill="#5D4037"/>
  <path d="M34.429,13.828 Q35.21,13.767 36,13.767 Q46.069,13.767 51.836,21.837 C51.801,22.145 51.757,22.45 51.704,22.752 L51.574,22.84 Q45.995,14.553 36,14.553 Q35.24,14.553 34.491,14.612 Z" fill="#5D4037"/>
  <path d="M35.967,19.609 Q39.963,20.087 43.447,22.099 Q47.312,24.328 49.81,27.982 C49.665,28.233 49.514,28.479 49.357,28.72 Q46.917,25.009 43.053,22.781 Q39.709,20.849 35.873,20.391 Z" fill="#4E342E"/>
  <path d="M47.569,25.671 Q47.265,26.259 47.089,26.55 Q42.635,34.272 34.272,35.914 C33.437,35.828 32.621,35.677 31.829,35.467 Q41.547,34.586 46.409,26.153 L46.411,26.15 L46.414,26.146 Q46.577,25.877 46.871,25.309 Z" fill="#3E2723"/>
  <path d="M42.015,21.8 Q41.664,22.533 41.281,23.197 Q36.269,31.873 26.443,32.878 C26.171,32.677 25.907,32.468 25.649,32.251 L25.642,32.158 Q35.608,31.443 40.599,22.803 Q40.968,22.166 41.305,21.46 Z" fill="#4E342E"/>
  <path d="M36.246,20.235 Q33.849,23.456 30.346,25.471 Q26.475,27.695 22.101,28.035 C21.956,27.786 21.817,27.532 21.686,27.275 Q26.082,27.014 29.954,24.789 Q33.315,22.856 35.614,19.765 Z" fill="#4E342E"/>
  <path d="M25.203,27.268 Q24.945,26.882 24.678,26.415 Q20.225,18.69 22.974,10.623 C23.46,9.952 23.997,9.321 24.578,8.735 Q20.499,17.591 25.362,26.025 Q25.615,26.468 25.857,26.832 Z" fill="#6D4C41"/>
  <path d="M31.326,24.394 Q30.878,23.744 30.487,23.054 Q25.467,14.363 29.546,5.329 C29.837,5.202 30.133,5.083 30.433,4.973 L30.554,5.032 Q26.18,14.024 31.173,22.666 Q31.545,23.326 31.974,23.946 Z" fill="#795548"/>
  <path d="M77.88,21.84 C62.89,18.3 54.94,30.75 54.64,42.72 C54.6,44.22 53.51,42.75 53.13,45.83 C52.41,51.72 55.91,53.4 55.91,53.4 C55.91,53.4 54.93,34.17 73.77,38.78 C92.86,43.45 84.45,59.37 84.45,59.37 C84.45,59.37 87.98,58.71 90,54.84 C91.81,51.37 89.42,52.67 90.34,49.96 C93.54,40.53 93.26,25.47 77.88,21.84 Z" fill="url(#SVGID_4_)"/>
  <path d="M56.27,48.89 C56.27,48.89 55.92,47.16 55.4,45.79 C54.87,44.39 53.98,43.74 53.98,43.74 C53.98,43.74 54.17,43.72 54.4,43.5 C54.64,43.28 54.62,43.17 54.62,43.17 C54.62,43.17 55.34,43.39 56.15,44.93 C56.86,46.27 56.27,48.89 56.27,48.89 Z" fill="#4000CC"/>
  <path d="M85.87,55.55 C85.87,55.55 87.33,53.52 88.5,52.63 C89.69,51.72 90.32,51.84 90.32,51.84 C90.32,51.84 90.14,51.47 90.12,51.25 C90.1,51.03 90.14,50.73 90.14,50.73 C90.14,50.73 89.51,50.79 88.29,51.52 C86.33,52.72 85.87,55.55 85.87,55.55 Z" fill="#4000CC"/>
  <path id="water_x5F_top" d="M112,92.18 C105.43,92.18 102.07,99.37 96,99.37 C89.94,99.37 86.57,92.18 80,92.18 C73.43,92.18 70.07,99.37 64,99.37 C57.93,99.37 54.57,92.18 48,92.18 C41.43,92.18 38.06,99.37 32,99.37 C25.94,99.37 22.57,92.18 16,92.18 C11.02,92.18 7.87,96.3 4,98.3 L4,123.99 L124,123.99 L124,98.3 C120.13,96.3 116.98,92.18 112,92.18 Z" fill="#039BE5"/>
  <path id="water_x5F_bottom" d="M111.99,111.89 C105.42,111.89 102.05,104.7 95.99,104.7 C89.93,104.7 86.56,111.89 79.99,111.89 C73.42,111.89 70.05,104.7 63.99,104.7 C57.93,104.7 54.56,111.89 47.99,111.89 C41.42,111.89 38.05,104.7 31.99,104.7 C25.93,104.7 22.56,111.89 15.99,111.89 C11.02,111.89 7.88,107.78 4.02,105.78 L4.02,123.98 L124,123.98 L124,105.77 C120.14,107.77 116.96,111.89 111.99,111.89 Z" fill="#29B6F6"/>
  <path id="tone_1_" d="M101.45,85.64 C101.47,85.66 101.46,85.68 101.44,85.7 L96.79,89.85 L97.2,89.23 C97.2,89.23 96.84,89.08 96.23,88.83 L101.38,85.62 C101.41,85.61 101.44,85.61 101.45,85.64 Z" fill="#4A2F27"/>
  <path id="hand" d="M92,105.57 L89.9,104.08 C87.23,102.18 86.6,98.45 88.5,95.78 L88.76,95.41 C90.66,92.74 94.39,92.11 97.06,94.01 L99.16,95.5 C101.83,97.4 102.46,101.13 100.56,103.8 L100.3,104.17 C98.4,106.83 94.66,107.46 92,105.57 Z" fill="url(#hand_1_)"/>
</svg>

<svg viewBox="0 0 128 128" xmlns="http://www.w3.org/2000/svg" xmlns:xlink="http://www.w3.org/1999/xlink">
  <linearGradient id="body_1_" gradientTransform="matrix(1 0 0 -1 0 128)" gradientUnits="userSpaceOnUse" x1="60.4642" x2="71.3479" y1="44.7323" y2="73.4764">
    <stop offset="0" stop-color="#5C4037"/>
    <stop offset="0.5" stop-color="#70534A"/>
  </linearGradient>
  <path id="body" d="M109.08,91.33c-0.09,0.12-10.18,11.85-10.18,11.85l-7.23-5.65l5.12-7.68l0.41-0.62 c0,0-0.36-0.15-0.97-0.4c-2.33-0.94-8.28-3.3-10.97-3.93c-2.84-0.67-3.94,0.5-4.92,2.63c-0.23,0.49-0.45,1.03-0.69,1.61 c-2.73,6.69-6.25,16.3-6.25,16.3c-12.53-1.42-25.42-3.77-38.02-4.32c4.24-6.87,9.39-22.16,10.14-24.15 c0.09-0.23,0.16-0.44,0.21-0.64c0.78-3.03-2.03-3.66-6.47-4.92c-3.47-0.98-7.74-2.08-11.76-3.74c-5.25-2.17-5.24-7.69-4.25-10.5 c2.09-5.95,8.86-15.24,9.2-16.1c1.13-2.9-2.37-2.9-4.25-7.06c-0.81-1.81-0.02-3.47,1-5.17c1.25-2.08,3.77-3.01,6.17-3.38 c2.42-0.36,4.97-0.29,7.19,0.72c0.47,0.22,1.1,0.42,1.5,0.77c0.36,0.33,0.41,0.71,0.87,0.91c0.58,0.25,1.17-0.05,1.77,0.35 c0.46,0.31,0.8,0.81,0.95,1.33c0.27,0.87,0.87,1.52,0.6,2.38c-0.83,2.67-3.04,4.72-4.6,7.62c-0.97,1.79-1.66,3.72-2.47,5.59 c-1.43,3.3-3.02,6.63-4.12,10.07c-0.08,0.24-0.16,0.48-0.23,0.72c0,0,0.24,0.06,0.67,0.16c2.41,0.6,10.88,2.64,17.61,4.32 c0.83,0.21,1.63,0.41,2.39,0.6c0.27,0.07,0.53,0.13,0.8,0.2c7.04,1.77,13.38,3.4,20.08,5.92c0.05,0.02,0.09,0.04,0.14,0.05 c1.03,0.39,2.01,0.77,2.96,1.14c17.21,6.67,22.29,10.08,24.98,11.61C110.5,82.21,112.67,86.67,109.08,91.33z" fill="url(#body_1_)"/>
  <path id="tone" d="M37.5,56.08l-4.64,2.58c-0.04,0.02-0.09,0.01-0.12-0.03c-0.02-0.04-0.01-0.09,0.03-0.11 l4.29-3.32c-0.08,0.24-0.16,0.48-0.23,0.72C36.83,55.92,37.07,55.98,37.5,56.08z" fill="#4A2F27"/>
  <linearGradient id="swimmingsuit_2_" gradientTransform="matrix(1 0 0 -1 0 128)" gradientUnits="userSpaceOnUse" x1="68.199" x2="57.6586" y1="63.4757" y2="33.0946">
    <stop offset="0" stop-color="#651FFF"/>
    <stop offset="0.7047" stop-color="#5914F2"/>
    <stop offset="1" stop-color="#530EEB"/>
  </linearGradient>
  <path id="swimmingsuit_1_" d="M81.48,68.31c0,0.01,0,0.01,0,0.02 c-0.04,0.13-0.14,0.39-0.28,0.75c-3.2,8.31-3.48,14.52-0.86,18.45c-0.23,0.49-0.45,1.03-0.69,1.61c-2.73,6.69-6.25,16.3-6.25,16.3 c-12.53-1.42-25.42-3.77-38.02-4.32c4.24-6.87,9.39-22.16,10.14-24.15c0.09-0.23,0.16-0.44,0.21-0.64 c3.86-1.91,6.96-7.08,9.23-15.39l0.15-0.54c0.83,0.21,1.63,0.41,2.39,0.6c0.27,0.07,0.53,0.13,0.8,0.2 c-0.39,11.18,4.47,12.98,6.3,13.67c6.54,2.43,11.17-2.85,13.92-7.7C79.55,67.56,80.53,67.94,81.48,68.31z" fill="url(#swimmingsuit_2_)"/>
  <path id="neck" d="M66.81,72.57L66.81,72.57c-2.82-0.55-4.66-3.29-4.11-6.11l0.92-4.69l10.22,2l-0.92,4.69 C72.37,71.28,69.63,73.12,66.81,72.57z" fill="#3C2B24"/>
  <path id="head" d="M76.41,25.19L76.41,25.19L76.41,25.19c-8.39-1.64-17.91,5.8-20.44,18.71 c-2.52,12.84,4.24,20.75,12.39,22.35s17.4-3.18,19.91-16.02C90.8,37.32,84.79,26.83,76.41,25.19z" fill="#70534A"/>
  <g id="eyebrows">
    <path d="M68.45,43.99c-0.32-0.68-1.17-1.74-3.16-2.15c-1.99-0.41-3.19,0.23-3.76,0.73 c-0.25,0.22-0.26,0.53-0.16,0.74c0.09,0.19,0.43,0.43,0.87,0.37c0.44-0.06,1.33-0.31,2.68-0.04c1.34,0.29,2.06,0.87,2.44,1.09 s0.79,0.15,0.95,0C68.48,44.58,68.59,44.29,68.45,43.99z" fill="#1A1717"/>
    <path d="M84,47.2c-0.32-0.68-1.17-1.74-3.16-2.15c-1.99-0.41-3.19,0.23-3.76,0.73 c-0.25,0.22-0.26,0.53-0.16,0.74c0.09,0.19,0.43,0.43,0.87,0.37c0.44-0.06,1.33-0.31,2.68-0.04c1.34,0.29,2.06,0.87,2.44,1.09 s0.79,0.15,0.95,0C84.03,47.79,84.14,47.5,84,47.2z" fill="#1A1717"/>
  </g>
  <g id="eyes">
    <ellipse cx="63.84" cy="47.61" fill="#1A1717" rx="2.51" ry="2.42" transform="matrix(0.1924 -0.9813 0.9813 0.1924 4.8381 101.0963)"/>
    <ellipse cx="79.68" cy="50.71" fill="#1A1717" rx="2.51" ry="2.42" transform="matrix(0.1924 -0.9813 0.9813 0.1924 14.5829 119.1486)"/>
  </g>
  <path id="mouth" d="M73.63,58.85c-1.71,0.61-6.75-0.38-8.1-1.59c-0.78-0.7-1.84-0.07-1.63,0.8 c0.21,0.86,2.59,3.22,4.97,3.69s5.44-0.83,5.96-1.55C75.34,59.47,74.61,58.49,73.63,58.85z" fill="#1A1717"/>
  <path id="nose" d="M72.44,53.81c-0.05-0.03-0.1-0.05-0.15-0.07l-3.41-0.67c-0.05,0-0.11,0-0.16,0.01 c-0.33,0.06-0.57,0.35-0.49,0.72c0.08,0.37,0.57,1.46,1.94,1.73s2.23-0.56,2.45-0.87C72.83,54.35,72.73,54,72.44,53.81z" fill="#33251F"/>
  <g id="ball">
    <g>
      <circle cx="35.94" cy="20" fill="#FF9100" r="16"/>
      <radialGradient id="SVGID_1_" cx="31.2523" cy="113.1426" gradientTransform="matrix(1 0 0 -1 0 128)" gradientUnits="userSpaceOnUse" r="17.6509">
        <stop offset="0.2092" stop-color="#FFA726"/>
        <stop offset="0.7917" stop-color="#B33F00"/>
      </radialGradient>
      <circle cx="35.94" cy="20" enable-background="new " fill="url(#SVGID_1_)" opacity="0.4" r="16"/>
      <g>
        <defs>
          <circle id="SVGID_2_" cx="35.94" cy="20" r="16"/>
        </defs>
        <clipPath id="SVGID_3_">
          <use overflow="visible" xlink:href="#SVGID_2_"/>
        </clipPath>
        <g clip-path="url(#SVGID_3_)">
          <g>
            <path d="M35.93,20.01c-1-2.32-1.55-4.88-1.55-7.57 c0-3.17,0.77-6.16,2.13-8.79" fill="none" stroke="#6D4C41" stroke-width="0.7869"/>
            <path d="M35.02,7.48c0.32-0.02,0.65-0.03,0.98-0.03 c6.49,0,12.22,3.22,15.69,8.15" fill="none" stroke="#5D4037" stroke-width="0.7869"/>
            <path d="M34.46,14.22c0.51-0.04,1.02-0.06,1.54-0.06 c6.62,0,12.46,3.35,15.9,8.46" fill="none" stroke="#5D4037" stroke-width="0.7869"/>
          </g>
          <g>
            <path d="M35.92,20c2.51,0.3,5.01,1.1,7.33,2.44 c2.74,1.58,4.95,3.75,6.55,6.24" fill="none" stroke="#4E342E" stroke-width="0.7869"/>
            <path d="M47.22,25.49c-0.15,0.29-0.3,0.58-0.47,0.86 c-3.24,5.62-8.9,8.97-14.9,9.51" fill="none" stroke="#3E2723" stroke-width="0.7869"/>
            <path d="M41.66,21.63c-0.22,0.46-0.46,0.92-0.72,1.37 c-3.31,5.73-9.13,9.11-15.27,9.55" fill="none" stroke="#4E342E" stroke-width="0.7869"/>
          </g>
          <g>
            <path d="M35.93,20c-1.51,2.03-3.45,3.79-5.78,5.13 c-2.75,1.58-5.72,2.41-8.68,2.55" fill="none" stroke="#4E342E" stroke-width="0.7869"/>
            <path d="M25.53,27.05c-0.18-0.27-0.35-0.55-0.51-0.83 c-3.24-5.62-3.32-12.19-0.79-17.67" fill="none" stroke="#6D4C41" stroke-width="0.7869"/>
            <path d="M31.65,24.17c-0.29-0.42-0.56-0.85-0.82-1.31 c-3.31-5.73-3.32-12.47-0.63-18" fill="none" stroke="#795548" stroke-width="0.7869"/>
          </g>
        </g>
      </g>
    </g>
  </g>
  <g id="swimming_x5F_cap">
    <radialGradient id="SVGID_4_" cx="76.875" cy="100.75" gradientTransform="matrix(1 0 0 -1 0 128)" gradientUnits="userSpaceOnUse" r="23.4351">
      <stop offset="0.2994" stop-color="#651FFF"/>
      <stop offset="0.7403" stop-color="#5914F2"/>
      <stop offset="0.925" stop-color="#530EEB"/>
    </radialGradient>
    <path d="M77.88,21.84c-14.99-3.54-22.94,8.91-23.24,20.88c-0.04,1.5-1.13,0.03-1.51,3.11 c-0.72,5.89,2.78,7.57,2.78,7.57s-0.98-19.23,17.86-14.62c19.09,4.67,10.68,20.59,10.68,20.59s3.53-0.66,5.55-4.53 c1.81-3.47-0.58-2.17,0.34-4.88C93.54,40.53,93.26,25.47,77.88,21.84z" fill="url(#SVGID_4_)"/>
    <path d="M56.27,48.89c0,0-0.35-1.73-0.87-3.1c-0.53-1.4-1.42-2.05-1.42-2.05s0.19-0.02,0.42-0.24 c0.24-0.22,0.22-0.33,0.22-0.33s0.72,0.22,1.53,1.76C56.86,46.27,56.27,48.89,56.27,48.89z" fill="#4000CC"/>
    <path d="M85.87,55.55c0,0,1.46-2.03,2.63-2.92c1.19-0.91,1.82-0.79,1.82-0.79s-0.18-0.37-0.2-0.59 c-0.02-0.22,0.02-0.52,0.02-0.52s-0.63,0.06-1.85,0.79C86.33,52.72,85.87,55.55,85.87,55.55z" fill="#4000CC"/>
  </g>
  <path id="water_x5F_top" d="M112,92.18c-6.57,0-9.93,7.19-16,7.19c-6.06,0-9.43-7.19-16-7.19 s-9.93,7.19-16,7.19s-9.43-7.19-16-7.19s-9.94,7.19-16,7.19s-9.43-7.19-16-7.19c-4.98,0-8.13,4.12-12,6.12v25.69H124V98.3 C120.13,96.3,116.98,92.18,112,92.18z" fill="#039BE5"/>
  <path id="water_x5F_bottom" d="M111.99,111.89c-6.57,0-9.94-7.19-16-7.19c-6.06,0-9.43,7.19-16,7.19 s-9.94-7.19-16-7.19s-9.43,7.19-16,7.19s-9.94-7.19-16-7.19s-9.43,7.19-16,7.19c-4.97,0-8.11-4.11-11.97-6.11v18.2H124v-18.21 C120.14,107.77,116.96,111.89,111.99,111.89z" fill="#29B6F6"/>
  <path id="tone_1_" d="M101.45,85.64c0.02,0.02,0.01,0.04-0.01,0.06l-4.65,4.15l0.41-0.62 c0,0-0.36-0.15-0.97-0.4l5.15-3.21C101.41,85.61,101.44,85.61,101.45,85.64z" fill="#4A2F27"/>
  <linearGradient id="hand_1_" gradientTransform="matrix(0.7216 0.5127 0.5792 -0.8152 1083.5981 -1632.4772)" gradientUnits="userSpaceOnUse" x1="222.7284" x2="222.4136" y1="-1979.9591" y2="-1991.0653">
    <stop offset="0.5" stop-color="#70534A"/>
    <stop offset="1" stop-color="#5C4037"/>
  </linearGradient>
  <path id="hand" d="M92,105.57l-2.1-1.49c-2.67-1.9-3.3-5.63-1.4-8.3l0.26-0.37 c1.9-2.67,5.63-3.3,8.3-1.4l2.1,1.49c2.67,1.9,3.3,5.63,1.4,8.3l-0.26,0.37C98.4,106.83,94.66,107.46,92,105.57z" fill="url(#hand_1_)"/>
</svg>
